!!!!SEGMENT: pl-kk--kk-i-350--002_anonim--alleluia-assumpta-est-maria.krn
!!!cenid: 17xx:2062
!!!COM: Anonim
!!!COM-rismID: pe30004985
!!!CDT:
!!!CNT:
!!!OTL: Alleluia assumpta est Maria
!!!PDT:
!!!AGN: Sacred
!!!SMS-siglum: PL-Kk
!!!SMS-shelfmark: Kk.I.350
!!!SMS-shelfwork: 002 W
!!!SMS-variant:
!!!SMS-altvar:
!!!NIFC-rismSourceID: 1001145752
!!!NIFC-islandoraID: pl-kk:5809
!!!URL-pdf-islandora: https://repozytorium.nifc.pl/islandora/object/pl-kk%3A5809/datastream/PDF/view
!!!URL-scan: https://polish.musicsources.pl/pl/lokalizacje/galeria/rekopisy/5966 @EN{Scan on Polish Music Herritage in Open Access Website} @PL{Skany w portalu Dziedzictwo Muzyki Polskiej w otwartym dostępie}
!!!ONB-nifc: UWAGA: utwory w zbiorze: 1. Gaudeamus, 2. Alleluia assumpta est Maria, 3. Surge propera, 4. Gaudeamus, 5. Propter veritatem, 6. Quae est ista, 7. Gaudeamus omnes, 8. Alleluia assumpta est Maria, 9. Nigra sum
!!!AIN: 1 alto 1 empty 1 tenor 1 vox
!!!key:
**kern	**text	**dynam	**kern	**text	**dynam	**kern	**text	**dynam	**kern	**text	**dynam
*part4	*part4	*part4	*part3	*part3	*part3	*part2	*part2	*part2	*part1	*part1	*part1
*staff4	*staff4	*	*staff3	*staff3	*	*staff2	*staff2	*	*staff1	*staff1	*
*Iempty	*	*	*Itenor	*	*	*Ialto	*	*	*Ivox	*	*
*I"Baſso E ripieno	*	*	*I"Tenore	*	*	*I"Alto	*	*	*I"Canto	*	*
*I'B rip	*	*	*I'T.	*	*	*I'A.	*	*	*I'C.	*	*
*clefF4	*	*	*clefC4	*	*	*clefC3	*	*	*clefC1	*	*
*k[]	*	*	*k[]	*	*	*k[]	*	*	*k[]	*	*
*C:	*	*	*C:	*	*	*C:	*	*	*C:	*	*
*M2/2	*	*	*M2/2	*	*	*M2/2	*	*	*M2/2	*	*
*met(c|)	*	*	*met(c|)	*	*	*met(c|)	*	*	*met(c|)	*	*
=1	=1	=1	=1	=1	=1	=1	=1	=1	=1	=1	=1
*	*	*	*	*	*	*2\right	*	*	*2\right	*	*
!	!	!	!	!	!	!	!	!	!LO:TX:a:t=allo	!	!
!LO:TX:rj:a:t=allo	!	!	!LO:TX:rj:a:t=allo	!	!	!LO:TX:rj:a:t=allo	!	!	!LO:TX:a:t=Graduale	!	!
2C/	Al-	.	2G/	Al-	.	2g\	Al-	.	2ee\	Al-	.
*2\right	*	*	*	*	*	*	*	*	*	*	*
2G\	-le-	.	2B/	-le-	.	2f\	-le-	.	2dd\	-le-	.
=2	=2	=2	=2	=2	=2	=2	=2	=2	=2	=2	=2
2c\	-lu-	.	2G/	-lu-	.	2e\	-lu-	.	2cc\	-lu-	.
4G\	-ia	.	4G/	-ia	.	4d\	-ia	.	4b\	-ja	.
4G\	al-	.	4G/	al-	.	4d\	al-	.	4b\	al-	.
=3	=3	=3	=3	=3	=3	=3	=3	=3	=3	=3	=3
2C/	-le-	.	2.G/	-le-	.	4e\	-le-	.	4cc\	-le-	.
.	.	.	.	.	.	8d\L	.	.	8b\L	.	.
.	.	.	.	.	.	8e\J	.	.	8cc\J	.	.
4BB/	.	.	.	.	.	4f\	.	.	4dd\	.	.
4C/	-lu-	.	4G/	-lu-	.	4e\	-lu-	.	4cc\	-lu-	.
=4	=4	=4	=4	=4	=4	=4	=4	=4	=4	=4	=4
2GG/	-ia	.	2G/	-ia	.	2d\	-ia	.	2b\	-ia	.
2r	.	.	2r	.	.	2r	.	.	2r	.	.
=5	=5	=5	=5	=5	=5	=5	=5	=5	=5	=5	=5
*	*	*	*2\right	*	*	*	*	*	*	*	*
!	!	!LO:DY:rj:a:t=p&colon;	!	!	!LO:DY:rj:a:t=p&colon;	!	!	!LO:DY:rj:a:t=p&colon;	!	!	!LO:DY:a:t=pia&colon;
2C/	Al-	p	2e\	al-	p	2g\	Al-	p	2g/	al-	p
2G\	-le-	.	2d\	-le-	.	2f\	-le-	.	2b/	-le-	.
=6	=6	=6	=6	=6	=6	=6	=6	=6	=6	=6	=6
2c\	-lu-	.	2c\	-lu-	.	2e\	-li-	.	2g/	-lu-	.
4G\	-ia	.	4B\	-ia	.	4d\	-ia	.	4g/	-ia	.
4G\	al-	.	4B\	al-	.	4d\	al-	.	4g/	al-	.
!	!	!	!	!	!	!LO:LB:g=original	!	!	!	!	!
=7	=7	=7	=7	=7	=7	=7	=7	=7	=7	=7	=7
2C/	-le-	.	4c\	-le-	.	4e\	-le-	.	2.g/	-le-	.
.	.	.	8B\L	.	.	8d\L	.	.	.	.	.
.	.	.	8c\J	.	.	8e\J	.	.	.	.	.
!	!	!	!LO:LB:g=original	!	!	!	!	!	!	!	!
4BB/	.	.	4d\	.	.	4f\	.	.	.	.	.
4C/	-lu-	.	4c\	lu-	.	4e\	-lu-	.	4g/	-lu-	.
!LO:LB:g=original	!	!	!	!	!	!	!	!	!LO:LB:g=original	!	!
=8	=8	=8	=8	=8	=8	=8	=8	=8	=8	=8	=8
2G\	-ia	.	2B\	-ia	.	2d\	-ia	f	2g/	-ia	.
!	!	!LO:DY:a	!	!	!LO:DY:a:t=for	!	!	!	!	!	!LO:DY:a:t=for
2G\	al-	f	2c\	al-	f	2g\	al-	.	2ee\	al-	f
=9	=9	=9	=9	=9	=9	=9	=9	=9	=9	=9	=9
1A\	-le-	.	2c\	-le-	.	2g\	-le-	.	2ee\	-le-	.
.	.	.	2A\	.	.	2f\	.	.	2dd\	.	.
=10	=10	=10	=10	=10	=10	=10	=10	=10	=10	=10	=10
2B\	.	.	1G/	.	.	2f\	.	.	2dd\	.	.
2c\	.	.	.	.	.	2e\	.	.	2cc\	.	.
=11	=11	=11	=11	=11	=11	=11	=11	=11	=11	=11	=11
2G\	.	.	2G/	.	.	2e\	.	.	2cc\	.	.
2G\	-lu-	.	2G/	-lu-	.	2d\	-lu-	.	2b\	-lu-	.
=12	=12	=12	=12	=12	=12	=12	=12	=12	=12	=12	=12
2C/	-ia	.	2G/	-ia	.	2e\	-ia.	.	2cc\	-ia	.
2C/	Aſ-	.	2G/	Aſ-	.	2c/	Aſ-	.	2ee\	Aſ-	.
=13	=13	=13	=13	=13	=13	=13	=13	=13	=13	=13	=13
4c\	-sum-	.	2.c\	-sum-	.	2.g\	-sum-	.	2.ee\	-sum-	.
4G\	.	.	.	.	.	.	.	.	.	.	.
4E\	-[[ta]]-	.	.	.	.	.	.	.	.	.	.
4G\	-ta	.	4B\	-pta	.	4f\	-pta	.	4dd\	-pta	.
=14	=14	=14	=14	=14	=14	=14	=14	=14	=14	=14	=14
2C/	est	.	2G/	est	.	2e\	est	.	2cc\	est	.
2C/	Ma-	.	2G/	Ma-	.	2g\	Ma-	.	2ee\	Ma-	.
=15	=15	=15	=15	=15	=15	=15	=15	=15	=15	=15	=15
2BB/	-ri-	.	2G/	-ri-	.	2f\	-ri-	.	2dd\	-ri-	.
4C/	-a	.	4G/	-a	.	4e\	-a	.	4cc\	-a	.
4C/	in	.	4G/	in	.	4e\	in	.	4cc\	in	.
!	!	!	!	!	!	!LO:LB:g=original	!	!	!	!	!
=16	=16	=16	=16	=16	=16	=16	=16	=16	=16	=16	=16
1G\	cae-	.	1G/	cae-	.	2d\	cae-	.	2b\	cae-	.
.	.	.	.	.	.	2e\	.	.	2cc\	.	.
!LO:LB:g=original	!	!	!	!	!	!	!	!	!	!	!
=17	=17	=17	=17	=17	=17	=17	=17	=17	=17	=17	=17
2G\	-lum	.	2G/	-lum	.	2d\	-lum	.	2b\	-lum	.
2r	.	.	2r	.	.	2r	.	.	2r	.	.
!	!	!	!LO:LB:g=original	!	!	!	!	!	!LO:LB:g=original	!	!
=18	=18	=18	=18	=18	=18	=18	=18	=18	=18	=18	=18
4F\	gau-	.	4d\	gau-	.	4d\	gau-	.	4b\	gau-	.
4E\	.	.	4c\	.	.	4e\	.	.	4cc\	.	.
4D\	-det	.	4B\	-det	.	4f\	-det	.	4dd\	-det	.
4BB/	e-	.	4B\	e-	.	4f\	e-	.	4dd\	e-	.
=19	=19	=19	=19	=19	=19	=19	=19	=19	=19	=19	=19
4C/	-xer-	.	4.G/	-xer-	.	4.e\	-xer-	.	4.cc\	-xer-	.
8E/	.	.	.	.	.	.	.	.	.	.	.
8G\	-ci-	.	8G/	-ci-	.	8f\	-ci-	.	8dd\	-ci-	.
2c\	-tus	.	2G/	-tus	.	2g\	-tus	.	2ee\	-tus	.
=20	=20	=20	=20	=20	=20	=20	=20	=20	=20	=20	=20
2C/	gau-	.	2c\	gau-	.	4a\	gau-	.	4ff\	gau-	.
.	.	.	.	.	.	4g\	.	.	4ee\	.	.
4G\	-det	.	4B\	det	.	4f\	-det	.	4dd\	-det	.
4c\	e-	.	4c\	e-	.	4e\	e-	.	4cc\	e-	.
=21	=21	=21	=21	=21	=21	=21	=21	=21	=21	=21	=21
4.G\	-xer-	.	4.B\	-xer-	.	4.d\	-xer-	.	4.b\	-xer-	.
8F\	-ci-	.	8A\	-ci-	.	8d\	-ci-	.	8b\	-ci-	.
2E\	-tus	.	2G/	-tus	.	2e\	-tus	.	2cc\	-tus	.
=22	=22	=22	=22	=22	=22	=22	=22	=22	=22	=22	=22
2BB/	an-	.	2G/	An-	.	2f\	An-	.	2dd\	An-	.
2C/	-ge-	.	2G/	-ge-	.	2e\	-ge-	.	2cc\	-ge-	.
=23	=23	=23	=23	=23	=23	=23	=23	=23	=23	=23	=23
2G\	-lo-	.	1G/	-lo-	.	2e\	-lo-	.	2cc\	-lo-	.
2GG/	.	.	.	.	.	2d\	.	.	2b\	.	.
!	!	!	!	!	!	!LO:LB:g=original	!	!	!	!	!
=24	=24	=24	=24	=24	=24	=24	=24	=24	=24	=24	=24
2C/	-rum	.	2G/	-rum	.	2e\	-rum	.	2cc\	-rum	.
2r	.	.	2r	.	.	2r	.	.	2r	.	.
!LO:LB:g=original	!	!	!	!	!	!	!	!	!LO:LB:g=original	!	!
=25	=25	=25	=25	=25	=25	=25	=25	=25	=25	=25	=25
!	!	!LO:DY:rj:a:t=p&colon;	!	!	!LO:DY:rj:a:t=p.	!	!	!LO:DY:t=p&colon;	!	!	!LO:DY:rj:t=p&colon;
4F\	gau-	p	4d\	gau-	p	4d\	gau-	p	4b\	gau-	p
4E\	.	.	4c\	.	.	4e\	.	.	4cc\	.	.
4D\	-det	.	4B\	-det	.	4f\	-det	.	4dd\	-det	.
4BB/	e-	.	4B\	e-	.	4f\	e-	.	4dd\	e-	.
!	!	!	!LO:LB:g=original	!	!	!	!	!	!	!	!
=26	=26	=26	=26	=26	=26	=26	=26	=26	=26	=26	=26
4C/	-xer-	.	4.G/	-xer-	.	4.e\	-xedr-	.	4.cc\	-xer-	.
8E/	.	.	.	.	.	.	.	.	.	.	.
8G\	-ci-	.	8G/	-ci-	.	8f\	-ci-	.	8dd\	-ci-	.
2c\	-tus	.	2G/	-tus	.	2g\	-tus	.	2ee\	-tus	.
=27	=27	=27	=27	=27	=27	=27	=27	=27	=27	=27	=27
2C/	gau-	.	2c\	gau-	.	4a\	gau-	.	4ff\	gau-	.
.	.	.	.	.	.	4g\	.	.	4ee\	.	.
4G\	-det	.	4B\	-det	.	4f\	-det	.	4dd\	-det	.
4c\	e-	.	4c\	e-	.	4e\	e-	.	4cc\	e-	.
=28	=28	=28	=28	=28	=28	=28	=28	=28	=28	=28	=28
4.G\	-xer-	.	4.B\	-xer-	.	4.d\	-xer-	.	4.b\	-xer-	.
8F\	-ci-	.	8A\	-ci-	.	8d\	-ci-	.	8b\	-ci-	.
2E\	-tus	.	2G/	-tus	.	2e\	-tus	.	2cc\	-tus	.
=29	=29	=29	=29	=29	=29	=29	=29	=29	=29	=29	=29
2BB/	an-	.	2G/	An-	.	2f\	an-	.	2dd\	An-	.
2C/	-ge-	.	2G/	-ge-	.	2e\	-ge-	.	2cc\	-ge-	.
=30	=30	=30	=30	=30	=30	=30	=30	=30	=30	=30	=30
2G\	-lo-	.	1G/	-lo-	.	2e\	-lo-	.	2cc\	-lo-	.
2GG/	.	.	.	.	.	2d\	.	.	2b\	.	.
=31	=31	=31	=31	=31	=31	=31	=31	=31	=31	=31	=31
2C/	-rum.	.	2G/	-rum	.	2e\	-rum	.	2cc\	-rum	.
!	!	!	!	!	!	!	!	!LO:DY:a:t=fo	!	!	!LO:DY:a:t=for
.	.	.	.	.	.	.	.	f	.	.	f
2c\	Al-	.	2c\	al-	.	2g\	Al-	.	2ee\	al-	.
!LO:LB:g=original	!	!	!	!	!	!LO:LB:g=original	!	!	!LO:LB:g=original	!	!
=32	=32	=32	=32	=32	=32	=32	=32	=32	=32	=32	=32
2c\	-le-	.	2c\	-le-	.	2g\	-le-	.	2ee\	-le-	.
2G\	-lu-	.	2B\	-lu-	.	2f\	-lu-	.	2dd\	-lu-	.
=33	=33	=33	=33	=33	=33	=33	=33	=33	=33	=33	=33
2E\	-ia	.	2G/	-ia	.	2e\	-ia	.	2cc\	-ia	.
2F\	al-	.	2G/	al-	.	4f\	al-	.	4dd\	al-	.
.	.	.	.	.	.	4e\	.	.	4cc\	.	.
!	!	!	!LO:LB:g=original	!	!	!	!	!	!	!	!
=34	=34	=34	=34	=34	=34	=34	=34	=34	=34	=34	=34
2G\	-le-	.	2G/	-le-	.	2d\	-le-	.	2cc\	-le-	.
2G\	-lu-	.	2G/	-lu-	.	2d\	-lu-	.	2b\	-lu-	.
=35	=35	=35	=35	=35	=35	=35	=35	=35	=35	=35	=35
1C/	-ia	.	1G/	-ia	.	1e\	-ia	.	1cc\	-ia	.
==	==	==	==	==	==	==	==	==	==	==	==
*-	*-	*-	*-	*-	*-	*-	*-	*-	*-	*-	*-
!!!system-decoration: [(s1,s2,s3,s4)]
!!!EED: Leszek Kubiak
!!!EEV: 2021-02-26
!!!ENC: Berenika Jozajtis
!!!END: 2021-02-17
